src/wp-content/themes/aquaban/assets/images/mail.svg

<svg width="10" height="8" viewBox="0 0 10 8" fill="none" xmlns="http://www.w3.org/2000/svg">
<path d="M0.273242 0.267529C0.44668 0.0937012 0.691602 -0.00415039 0.936914 0.000146484C3.6457 -4.88281e-05 6.35449 -4.88281e-05 9.06328 0.000146484C9.27676 -0.00258789 9.49121 0.068506 9.65664 0.204443C9.86582 0.37124 9.99336 0.632373 10 0.899756V0.979053C9.9791 1.24761 9.83438 1.50386 9.6084 1.6521C8.24883 2.55972 6.88848 3.46616 5.52813 4.3728C5.21641 4.59624 4.76797 4.59194 4.45957 4.36421C3.10039 3.45737 1.74043 2.55151 0.38125 1.64487C0.161133 1.49663 0.0207031 1.24429 0 0.980615V0.899561C0.00605469 0.664209 0.104492 0.432373 0.273242 0.267529Z" fill="#00AFEA"/>
<path d="M0 2.09194C0.0320312 2.11597 0.0652344 2.13843 0.0984375 2.16089C1.39121 3.02261 2.68398 3.88452 3.97676 4.74624C4.11191 4.8353 4.24375 4.93218 4.39336 4.99624C4.76953 5.16519 5.21563 5.16675 5.59355 5.00249C5.73906 4.94195 5.86816 4.85034 5.99883 4.76363C6.71797 4.28413 7.43691 3.80484 8.15605 3.32534C8.77012 2.91362 9.38887 2.50855 10 2.09234V6.58941C9.99356 6.82456 9.8959 7.0562 9.72812 7.22163C9.57734 7.3728 9.37207 7.46792 9.15938 7.4853C9.075 7.49214 8.99023 7.48902 8.90586 7.4896C6.24941 7.4896 3.59297 7.4898 0.936523 7.4896C0.686523 7.4937 0.436719 7.39194 0.262695 7.21206C0.1 7.04819 0.00625 6.82085 0 6.59058V2.09194Z" fill="#00AFEA"/>
</svg>

<svg width="10" height="8" fill="none" xmlns="http://www.w3.org/2000/svg"><path d="M.273.268A.924.924 0 01.937 0h8.126A.922.922 0 0110 .9v.08a.895.895 0 01-.392.672c-1.36.908-2.72 1.814-4.08 2.72a.928.928 0 01-1.068-.008C3.1 3.457 1.74 2.552.38 1.644A.892.892 0 010 .982V.9A.925.925 0 01.273.268z" fill="#00AFEA"/><path d="M0 2.092c.032.024.065.046.098.069l3.879 2.585c.135.09.267.186.416.25a1.5 1.5 0 001.2.006c.146-.06.275-.152.406-.238l2.157-1.439C8.77 2.914 9.39 2.51 10 2.092V6.59a.916.916 0 01-.84.896c-.085.007-.17.004-.254.005H.936A.927.927 0 010 6.59V2.093z" fill="#00AFEA"/></svg>
